X:150
T:Tell Her I Am
N:Donal O'Connor and John McSherry - Tripswitch
Z:robin.beech@mcgill.ca
R:jig
M:6/8
L:1/8
K:G
|: edB G3 | DED G3 | DED Bcd | BGE EB/c/d |
edB G3 | DED G3 | AGF GBA |1 GFE DB/c/d :|2 GFE DA/B/c |:
B3 dBG | B3 DGB | A3 AGA | BGE E2D |
B3 de/f/g | age d2B | cBA GBA |1 GFE DA/B/c :|2 GFE D3 |:
efg efg | dBG GB/c/d | e2a aga | bge e2d |
efg efg | dBG Ge/f/g | agf gba | gfe d3 |
efg efg dBG GB/c/d | e2a aga | bge e2B |
def gba | gfe d2B | cBA GBA | GFE DB/c/d |]
